dist/svgs/crypto-icons/icons/rbies.svg

<?xml version="1.0" encoding="UTF-8" standalone="yes"?>
<svg xmlns="http://www.w3.org/2000/svg" xmlns:xlink="http://www.w3.org/1999/xlink" width="512px" height="512px" viewBox="0 0 384 384" version="1.1">
  <g id="surface1">
    <path style=" stroke:none;fill-rule:nonzero;fill:rgb(0%,0%,0%);fill-opacity:1;" d="M 191.359375 186.632812 L 225.46875 157.351562 L 191.359375 142.351562 L 157.25 157.351562 Z M 243.160156 142.167969 L 200.910156 142.167969 L 228.851562 154.453125 Z M 146.113281 187.273438 L 150.636719 161.613281 L 117.878906 187.273438 Z M 236.398438 191.289062 L 215.3125 258.6875 L 266.609375 191.289062 Z M 154.886719 160.613281 L 150.1875 187.273438 L 185.941406 187.273438 Z M 167.410156 258.6875 L 146.324219 191.289062 L 116.113281 191.289062 Z M 269.203125 185.59375 L 274.671875 150.691406 L 249.035156 142.417969 L 232.359375 156.730469 Z M 296.125 187.273438 L 278.007812 155.308594 L 273.003906 187.273438 Z M 188.832031 191.289062 L 150.53125 191.289062 L 172.460938 261.382812 Z M 210.261719 261.382812 L 232.191406 191.289062 L 193.890625 191.289062 Z M 318.570312 187.273438 L 284.230469 158.144531 L 300.734375 187.273438 Z M 264.839844 187.273438 L 232.082031 161.613281 L 236.609375 187.273438 Z M 196.777344 187.273438 L 232.53125 187.273438 L 227.832031 160.617188 Z M 109.71875 187.273438 L 104.710938 155.308594 L 86.601562 187.273438 Z M 211.792969 269.9375 L 195.847656 320.890625 L 234.242188 280.597656 L 263.976562 201.375 Z M 272.050781 191.289062 L 243.617188 267.046875 L 295.746094 191.289062 Z M 191.359375 198.105469 L 174.820312 268.929688 L 191.359375 321.789062 L 207.898438 268.925781 Z M 191.359375 198.105469 "/>
    <path style=" stroke:none;fill-rule:nonzero;fill:rgb(0%,0%,0%);fill-opacity:1;" d="M 250.371094 128.785156 L 132.351562 128.785156 L 100.164062 139.175781 L 42.136719 188.40625 L 191.359375 344.996094 L 340.582031 188.40625 L 282.558594 139.175781 Z M 325.386719 187.808594 C 325.441406 187.855469 325.488281 187.910156 325.539062 187.964844 C 325.578125 188.007812 325.617188 188.054688 325.652344 188.101562 C 325.730469 188.210938 325.796875 188.324219 325.855469 188.441406 C 325.882812 188.511719 325.90625 188.578125 325.929688 188.648438 C 325.949219 188.703125 325.96875 188.761719 325.984375 188.820312 C 326 188.890625 326.007812 188.960938 326.019531 189.03125 C 326.023438 189.082031 326.039062 189.128906 326.042969 189.175781 C 326.042969 189.195312 326.035156 189.210938 326.039062 189.230469 C 326.039062 189.246094 326.042969 189.261719 326.042969 189.28125 C 326.042969 189.335938 326.03125 189.382812 326.027344 189.441406 C 326.019531 189.503906 326.019531 189.570312 326.007812 189.628906 C 325.992188 189.707031 325.972656 189.773438 325.953125 189.84375 C 325.933594 189.902344 325.917969 189.960938 325.894531 190.015625 C 325.871094 190.085938 325.835938 190.152344 325.800781 190.21875 C 325.773438 190.269531 325.75 190.320312 325.71875 190.371094 C 325.675781 190.433594 325.625 190.488281 325.578125 190.550781 C 325.546875 190.585938 325.523438 190.628906 325.488281 190.664062 L 192.8125 329.898438 C 192.683594 330.027344 192.535156 330.140625 192.378906 330.234375 C 192.351562 330.25 192.324219 330.253906 192.296875 330.269531 C 192.191406 330.328125 192.078125 330.378906 191.960938 330.417969 C 191.917969 330.429688 191.871094 330.449219 191.828125 330.457031 C 191.675781 330.496094 191.519531 330.515625 191.363281 330.523438 L 191.355469 330.523438 C 191.199219 330.519531 191.042969 330.496094 190.890625 330.457031 C 190.847656 330.445312 190.800781 330.429688 190.757812 330.417969 C 190.640625 330.378906 190.523438 330.328125 190.414062 330.269531 C 190.390625 330.253906 190.363281 330.25 190.339844 330.234375 C 190.328125 330.230469 190.324219 330.222656 190.308594 330.210938 C 190.160156 330.121094 190.027344 330.015625 189.902344 329.898438 L 57.230469 190.664062 C 57.199219 190.628906 57.171875 190.585938 57.140625 190.546875 C 57.089844 190.488281 57.039062 190.433594 57.003906 190.371094 C 56.972656 190.320312 56.945312 190.269531 56.917969 190.21875 C 56.882812 190.148438 56.847656 190.082031 56.820312 190.015625 C 56.796875 189.960938 56.78125 189.902344 56.765625 189.84375 C 56.742188 189.773438 56.726562 189.703125 56.710938 189.632812 C 56.699219 189.566406 56.695312 189.5 56.691406 189.4375 C 56.6875 189.382812 56.675781 189.335938 56.675781 189.28125 C 56.675781 189.261719 56.679688 189.246094 56.679688 189.230469 C 56.679688 189.210938 56.675781 189.195312 56.679688 189.175781 C 56.679688 189.125 56.691406 189.082031 56.699219 189.03125 C 56.710938 188.960938 56.71875 188.890625 56.730469 188.820312 C 56.746094 188.761719 56.765625 188.703125 56.789062 188.648438 C 56.808594 188.578125 56.832031 188.507812 56.863281 188.441406 C 56.890625 188.386719 56.921875 188.335938 56.949219 188.285156 C 56.984375 188.222656 57.019531 188.160156 57.0625 188.101562 C 57.144531 188 57.234375 187.898438 57.328125 187.808594 C 57.347656 187.789062 57.363281 187.765625 57.382812 187.75 L 104.503906 147.777344 C 104.53125 147.753906 104.570312 147.746094 104.601562 147.726562 C 104.753906 147.605469 104.921875 147.511719 105.097656 147.445312 C 105.128906 147.433594 105.152344 147.410156 105.183594 147.398438 L 133.523438 138.25 C 133.53125 138.246094 133.546875 138.246094 133.558594 138.242188 C 133.726562 138.191406 133.902344 138.167969 134.078125 138.160156 C 134.097656 138.160156 134.121094 138.152344 134.136719 138.152344 L 248.574219 138.152344 C 248.59375 138.152344 248.609375 138.160156 248.625 138.160156 C 248.804688 138.164062 248.988281 138.191406 249.160156 138.242188 L 249.1875 138.25 L 277.53125 147.398438 C 277.566406 147.410156 277.59375 147.4375 277.628906 147.453125 C 277.792969 147.515625 277.945312 147.601562 278.089844 147.710938 C 278.128906 147.738281 278.175781 147.75 278.210938 147.777344 L 325.332031 187.753906 C 325.351562 187.769531 325.371094 187.785156 325.386719 187.808594 Z M 325.386719 187.808594 "/>
    <path style=" stroke:none;fill-rule:nonzero;fill:rgb(0%,0%,0%);fill-opacity:1;" d="M 181.808594 142.167969 L 139.5625 142.167969 L 153.871094 154.453125 Z M 251.953125 262.011719 L 319.351562 191.289062 L 300.621094 191.289062 Z M 118.746094 201.375 L 148.476562 280.597656 L 186.871094 320.890625 L 170.929688 269.9375 Z M 150.359375 156.730469 L 133.6875 142.417969 L 108.050781 150.691406 L 113.515625 185.59375 Z M 98.488281 158.144531 L 64.15625 187.273438 L 81.984375 187.273438 Z M 63.371094 191.289062 L 130.769531 262.011719 L 82.097656 191.289062 Z M 86.972656 191.289062 L 139.101562 267.046875 L 110.671875 191.289062 Z M 19.941406 255.339844 L 1.875 259.808594 C 1.015625 260.019531 0.273438 260.5625 -0.1875 261.324219 C -0.648438 262.082031 -0.785156 262.992188 -0.570312 263.855469 C -0.203125 265.347656 1.136719 266.398438 2.671875 266.398438 C 2.941406 266.398438 3.207031 266.367188 3.476562 266.296875 L 21.542969 261.839844 C 23.335938 261.394531 24.429688 259.578125 23.992188 257.785156 C 23.546875 255.996094 21.734375 254.902344 19.941406 255.339844 Z M 25.070312 167.070312 L 7.003906 161.523438 C 5.238281 160.988281 3.375 161.980469 2.832031 163.742188 C 2.292969 165.507812 3.28125 167.375 5.042969 167.917969 L 23.105469 173.46875 C 24.871094 174.011719 26.742188 173.019531 27.285156 171.253906 C 27.828125 169.484375 26.835938 167.613281 25.070312 167.070312 Z M 67.859375 96.996094 C 69.148438 98.320312 71.265625 98.347656 72.585938 97.058594 C 73.910156 95.769531 73.9375 93.652344 72.648438 92.328125 L 59.492188 78.835938 C 58.1875 77.597656 56.136719 77.609375 54.847656 78.867188 C 53.558594 80.121094 53.492188 82.171875 54.699219 83.507812 Z M 144.160156 51.972656 C 144.566406 53.414062 145.878906 54.410156 147.375 54.410156 C 147.675781 54.410156 147.984375 54.367188 148.285156 54.28125 C 150.066406 53.78125 151.097656 51.929688 150.597656 50.152344 L 145.402344 31.75 C 144.890625 29.988281 143.050781 28.96875 141.28125 29.46875 C 139.515625 29.96875 138.480469 31.796875 138.964844 33.570312 Z M 380.84375 259.808594 L 362.777344 255.339844 C 360.984375 254.898438 359.175781 255.992188 358.730469 257.785156 C 358.285156 259.578125 359.378906 261.390625 361.171875 261.835938 L 379.242188 266.292969 C 379.507812 266.363281 379.78125 266.398438 380.046875 266.398438 C 381.546875 266.398438 382.914062 265.375 383.292969 263.855469 C 383.503906 262.992188 383.367188 262.082031 382.910156 261.324219 C 382.449219 260.5625 381.707031 260.019531 380.84375 259.808594 Z M 377.679688 167.917969 C 379.445312 167.375 380.4375 165.503906 379.894531 163.738281 C 379.351562 161.972656 377.480469 160.980469 375.714844 161.523438 L 357.648438 167.070312 C 356.074219 167.5625 355.09375 169.128906 355.335938 170.761719 C 355.582031 172.390625 356.976562 173.601562 358.628906 173.613281 C 358.953125 173.613281 359.289062 173.566406 359.613281 173.464844 Z M 312.464844 98.007812 C 313.335938 98.007812 314.203125 97.667969 314.859375 96.996094 L 328.019531 83.503906 C 328.90625 82.660156 329.261719 81.398438 328.945312 80.214844 C 328.628906 79.027344 327.6875 78.113281 326.496094 77.824219 C 325.304688 77.539062 324.050781 77.925781 323.226562 78.835938 L 310.074219 92.328125 C 309.453125 92.960938 309.109375 93.816406 309.121094 94.703125 C 309.132812 95.589844 309.496094 96.4375 310.132812 97.054688 C 310.753906 97.667969 311.59375 98.007812 312.464844 98.007812 Z M 234.433594 54.28125 C 234.738281 54.367188 235.042969 54.410156 235.34375 54.410156 C 236.804688 54.410156 238.144531 53.445312 238.5625 51.972656 L 243.757812 33.570312 C 244.257812 31.792969 243.222656 29.945312 241.445312 29.441406 C 239.667969 28.941406 237.824219 29.976562 237.320312 31.75 L 232.125 50.152344 C 231.621094 51.929688 232.65625 53.777344 234.433594 54.28125 Z M 234.433594 54.28125 "/>
  </g>
</svg>

<svg xmlns="http://www.w3.org/2000/svg" viewBox="0 0 384 384"><path d="M191.36 186.633l34.109-29.281-34.11-15-34.109 15zm51.8-44.465h-42.25l27.942 12.285zm-97.047 45.105l4.524-25.66-32.758 25.66zm90.285 4.016l-21.085 67.399 51.296-67.399zm-81.511-30.676l-4.7 26.66h35.754zm12.523 98.075l-21.086-67.399h-30.21zm101.793-73.094l5.469-34.903-25.637-8.273-16.676 14.312zm26.922 1.68l-18.117-31.965-5.004 31.964zm-107.293 4.015h-38.3l21.929 70.094zm21.43 70.094l21.93-70.094H193.89zm108.308-74.11l-34.34-29.128 16.504 29.128zm-53.73 0l-32.758-25.66 4.527 25.66zm-68.063 0h35.754l-4.699-26.656zm-87.058 0l-5.008-31.964-18.11 31.964zm102.074 82.665l-15.945 50.953 38.394-40.293 29.735-79.223zm60.258-78.649l-28.434 75.758 52.13-75.758zm-80.692 6.816L174.82 268.93l16.54 52.86 16.538-52.864zm0 0"/><path d="M250.371 128.785h-118.02l-32.187 10.39-58.027 49.231 149.222 156.59 149.223-156.59-58.023-49.23zm75.016 59.024c.054.046.101.101.152.156.04.043.078.09.113.137.078.109.145.222.203.34a4.387 4.387 0 01.13.378c.015.07.023.14.035.211.003.051.02.098.023.145 0 .02-.008.035-.004.054 0 .016.004.032.004.051 0 .055-.012.102-.016.16-.007.063-.007.13-.02.188-.015.078-.034.144-.054.215-.02.058-.035.117-.058.172-.024.07-.06.136-.094.203-.028.05-.051.101-.082.152-.043.063-.094.117-.14.18-.032.035-.056.078-.09.113L192.812 329.898a2.26 2.26 0 01-.434.336c-.027.016-.055.02-.082.036a2.063 2.063 0 01-.336.148c-.043.012-.09.031-.133.039a2.34 2.34 0 01-.465.066h-.008a2.085 2.085 0 01-.464-.066l-.133-.039a2.226 2.226 0 01-.344-.148c-.023-.016-.05-.02-.074-.036-.012-.004-.016-.011-.031-.023a2.442 2.442 0 01-.407-.313L57.23 190.664c-.03-.035-.058-.078-.09-.117-.05-.059-.1-.113-.136-.176a2.998 2.998 0 01-.086-.152c-.035-.07-.07-.137-.098-.203a1.258 1.258 0 01-.054-.172 1.77 1.77 0 01-.055-.211c-.012-.067-.016-.133-.02-.196-.004-.054-.015-.101-.015-.156 0-.02.004-.035.004-.05 0-.02-.004-.036 0-.055 0-.051.011-.094.02-.145l.03-.21c.016-.06.036-.118.06-.173.019-.07.042-.14.073-.207.028-.054.059-.105.086-.156.035-.062.07-.125.114-.183.082-.102.171-.204.265-.293.02-.02.035-.043.055-.059l47.12-39.973c.028-.023.067-.03.099-.05a1.83 1.83 0 01.496-.282c.03-.011.054-.035.086-.047l28.34-9.148c.007-.004.023-.004.035-.008a2.12 2.12 0 01.52-.082c.019 0 .042-.008.058-.008h114.437c.02 0 .035.008.051.008.18.004.363.031.535.082l.028.008 28.343 9.148c.035.012.063.04.098.055.164.063.316.149.46.258.04.027.087.039.122.066l47.121 39.977c.02.016.04.031.055.055zm0 0"/><path d="M181.809 142.168h-42.246l14.308 12.285zm70.144 119.844l67.399-70.723h-18.73zm-133.207-60.637l29.73 79.223 38.395 40.293-15.941-50.954zm31.613-44.645l-16.672-14.312-25.636 8.273 5.465 34.903zm-51.87 1.415l-34.333 29.128h17.828zM63.37 191.289l67.399 70.723-48.672-70.723zm23.602 0l52.129 75.758-28.43-75.758zM19.94 255.34l-18.066 4.47a3.34 3.34 0 00-2.445 4.046 3.342 3.342 0 003.242 2.543c.27 0 .535-.03.805-.101l18.066-4.457a3.359 3.359 0 002.45-4.055 3.355 3.355 0 00-4.052-2.445zm5.13-88.269l-18.067-5.547a3.345 3.345 0 00-1.96 6.395l18.061 5.55a3.347 3.347 0 001.965-6.398zm42.788-70.074a3.345 3.345 0 004.79-4.668L59.491 78.836a3.349 3.349 0 00-4.793 4.672zm76.301-45.023a3.341 3.341 0 003.215 2.437c.3 0 .61-.043.91-.129a3.345 3.345 0 002.313-4.129l-5.196-18.402a3.346 3.346 0 00-6.438 1.82zM380.843 259.81l-18.067-4.47a3.345 3.345 0 00-1.605 6.497l18.07 4.457c.266.07.54.105.805.105 1.5 0 2.867-1.023 3.246-2.543a3.337 3.337 0 00-2.45-4.047zm-3.164-91.891a3.345 3.345 0 00-1.965-6.395l-18.067 5.547a3.351 3.351 0 00-2.312 3.692 3.353 3.353 0 003.293 2.851c.324 0 .66-.047.984-.148zm-65.215-69.91c.87 0 1.738-.34 2.394-1.012l13.16-13.492a3.347 3.347 0 10-4.792-4.668l-13.153 13.492a3.337 3.337 0 00.059 4.727c.62.613 1.46.953 2.332.953zm-78.03-43.729c.304.086.609.13.91.13 1.46 0 2.8-.966 3.219-2.438l5.195-18.403a3.35 3.35 0 00-2.313-4.129 3.347 3.347 0 00-4.125 2.309l-5.195 18.402a3.345 3.345 0 002.309 4.13zm0 0"/></svg>
